!!!COM: Music21
!!!OTL: Vento
!!!OMV: pezas_alalas_vento_vento-partitura.musicxml
**kern
*I"Bagpipes
*I'Bag
*clefG^2
*k[]
*M3/4
=1
!LO:TX:a:t=Ad libitum
*MM72
!LO:TX:a:t=[quarter]=72
8ggL
8aaJ
8bbL
8cccJ
8aaL
[8ggJ
=
4.gg]
8ee
8aaL
8ggJ
=
4.dd
8dd
8ccL
8ddJ
=
2.ee;
=
8ggL
8aaJ
8bbL
8cccJ
8aaL
[8ggJ
=
4.gg]
8ee
8aaL
8ggJ
=
2dd
8eeL
[8ccJ
=
2.cc]
!!linebreak:original
=||
*M3/4
!LO:TX:a:t=Ad libitum
*MM72
!LO:TX:a:t=[quarter]=72
8ggL
8aaJ
8bbL
8cccJ
8aaL
[8ggJ
=
4.gg]
8ee
8aaL
8ggJ
=
4.dd
8dd
8ccL
8ddJ
=
2.ee;
=
8ggL
8aaJ
8bbL
8cccJ
8aaL
[8ggJ
=
4.gg]
8ee
8aaL
8ggJ
=
2dd
8eeL
[8ccJ
=
2.cc]
=||
8bbL
8cccJ
8dddL
8dddJ
8cccL
8dddJ
!!linebreak:original
=
8eeeL
[8cccJ
2ccc]
=
8bbL
8cccJ
8dddL
8dddJ
8cccL
8bbJ
=
8aaL
16bbL
16aaJJ
2gg;
=
8bbL
8cccJ
8dddL
8dddJ
8cccL
8dddJ
=
4eee
8cccL
8bbJ
8aaL
8ggJ
=
4ddd
8bbL
8ggJ
8ffL
8eeJ
=
8ddL
16eeL
16ddJJ
2cc
=||
8bbL
8cccJ
8dddL
8dddJ
8cccL
8dddJ
!!linebreak:original
=
8eeeL
[8cccJ
2ccc]
=
8bbL
8cccJ
8dddL
8dddJ
8cccL
8bbJ
=
8aaL
16bbL
16aaJJ
2gg;
=
8bbL
8cccJ
8dddL
8dddJ
8cccL
8dddJ
=
4eee
8cccL
8bbJ
8aaL
8ggJ
=
4ddd
8bbL
8ggJ
8ffL
8eeJ
=
8ddL
16eeL
16ddJJ
2cc
=||
*-
